X:1
T:Happy Birthday
M:3/4
L:1/4
K:Amaj
"A"z2E/E/|"A"F"A"E"A"A|"E"G"E"z"E"E/E/|"E"F"E"E"E"B|"A"A"A"z"A"E/E/|
w:Hap-py birth-day to you! Hap-py birth-day to you! Hap-py
"A7"e"A7"c"A7"A|"D"G/"D"G/Fd/d/|"A"c"A"A"E"B|"A"Azz|]
w:birth-day dear (a-kár-ki) Hap-py birth-day to you!
